svg/color/mta.svg

<svg viewBox="0 0 200 200" fill="none" xmlns="http://www.w3.org/2000/svg">
<path d="M100 200C155.228 200 200 155.228 200 100C200 44.7715 155.228 0 100 0C44.7715 0 0 44.7715 0 100C0 155.228 44.7715 200 100 200Z" fill="black"/>
<path d="M49.6325 66.5825C49.6325 62.4806 49.3833 58.5143 49 54.4124H67.1308L67.7633 62.7322C69.7948 59.9267 74.7397 53 87.5422 53C102.262 53 106.44 62.0937 107.705 65.1701C113.033 54.7994 121.657 53.1354 128.25 53.1354C141.187 53.1354 146.4 60.9521 147.78 63.5061C151.211 69.1365 150.943 76.9531 150.943 82.5835V118.01H132.045V81.055C132.045 74.1283 131.029 66.447 121.255 66.447C110.024 66.447 109.774 77.0886 109.774 86.6855V118.01H90.8771V80.6681C90.8771 75.6762 90.743 66.447 80.3551 66.447C68.549 66.447 68.549 76.7016 68.549 81.055V118.01H49.6325V66.5825ZM49 132.231H151V148H49V132.231Z" fill="white"/>
</svg>

<svg xmlns="http://www.w3.org/2000/svg" fill="none" viewBox="0 0 200 200"><path fill="#000" d="M100 200c55.228 0 100-44.772 100-100S155.228 0 100 0 0 44.772 0 100s44.772 100 100 100"/><path fill="#fff" d="M49.633 66.583c0-4.102-.25-8.069-.633-12.17h18.13l.633 8.32C69.795 59.926 74.74 53 87.543 53c14.719 0 18.897 9.094 20.162 12.17 5.328-10.37 13.952-12.035 20.545-12.035 12.937 0 18.15 7.817 19.53 10.371 3.431 5.63 3.163 13.447 3.163 19.078v35.426h-18.898V81.055c0-6.927-1.016-14.608-10.79-14.608-11.231 0-11.481 10.642-11.481 20.239v31.324H90.877V80.668c0-4.992-.134-14.221-10.522-14.221-11.806 0-11.806 10.255-11.806 14.608v36.955H49.632zM49 132.23h102V148H49z"/></svg>
